X: 34775
T: Road To Reel, The
R: jig
M: 6/8
K: Gmajor
|:B2A Bdg|ABd BAG|B2A Bde|ged BGA|
B2A Bdg|ABd BAG|B2A Bde|age dBA:|
|:Bde g2b|agb age|Bde ~g3|age dBA|
Bde g2b|agb age|~g3 a2b|age dBA:|

